usr/share/icons/biglinux-icons-material/scalable/mimetypes/font-x-generic.svg

<svg width="24" height="24" viewBox="0 0 24 24" fill="none" xmlns="http://www.w3.org/2000/svg">
<rect x="1" y="1" width="22" height="22" rx="6.6" fill="url(#paint0_radial_6_100)"/>
<path d="M10.6245 12.5041C10.2473 13.1708 10.7289 13.9966 11.4949 13.9966H13.6326C14.258 13.9966 14.73 13.429 14.6158 12.8141L14.0877 9.96922C13.9173 9.05145 12.6938 8.84688 12.2342 9.6593L10.6245 12.5041ZM5.59678 19.0001C5.28628 19.0001 5.05181 18.7185 5.108 18.4131V18.4131C5.15139 18.1773 5.35699 18.0061 5.59678 18.0061H5.88696C6.19207 18.0061 6.47351 17.8417 6.62338 17.5759L13.4277 5.50883C13.605 5.19446 13.9379 5 14.2988 5H14.4194C14.9013 5 15.3147 5.3437 15.4026 5.81751L17.5652 17.469C17.623 17.7803 17.8946 18.0061 18.2112 18.0061H18.4032C18.7137 18.0061 18.9482 18.2876 18.892 18.593V18.593C18.8486 18.8288 18.643 19.0001 18.4032 19.0001H14.4484C14.1379 19.0001 13.9034 18.7185 13.9596 18.4131V18.4131C14.003 18.1773 14.2086 18.0061 14.4484 18.0061H14.6562C15.1226 18.0061 15.4748 17.5832 15.3905 17.1246L15.1505 15.8192C15.0633 15.3446 14.6495 14.9999 14.167 14.9999H9.79823C9.43681 14.9999 9.10352 15.195 8.92646 15.51L7.9553 17.2382C7.76224 17.5818 8.01052 18.0061 8.4046 18.0061H8.42668C8.73719 18.0061 8.97166 18.2876 8.91547 18.593V18.593C8.87208 18.8288 8.66648 19.0001 8.42669 19.0001H5.59678Z" fill="#666666"/>
<defs>
<radialGradient id="paint0_radial_6_100" cx="0" cy="0" r="1" gradientUnits="userSpaceOnUse" gradientTransform="translate(17.5 1) rotate(116.565) scale(24.5967)">
<stop stop-color="#F4F4F4"/>
<stop offset="1" stop-color="#BBBBBB"/>
</radialGradient>
</defs>
</svg>

<svg xmlns="http://www.w3.org/2000/svg" width="24" height="24" fill="none"><rect width="22" height="22" x="1" y="1" fill="url(#a)" rx="6.6"/><path fill="#666" d="M10.624 12.504a1 1 0 0 0 .87 1.493h2.139a1 1 0 0 0 .983-1.183l-.528-2.845c-.17-.918-1.394-1.122-1.854-.31l-1.61 2.845ZM5.597 19a.497.497 0 1 1 0-.994h.29a.845.845 0 0 0 .736-.43l6.805-12.067a1 1 0 0 1 .87-.509h.121a1 1 0 0 1 .984.818l2.162 11.651c.058.311.33.537.646.537h.192a.497.497 0 1 1 0 .994h-3.955a.497.497 0 1 1 0-.994h.208a.747.747 0 0 0 .734-.881l-.24-1.306a1 1 0 0 0-.983-.82H9.798a1 1 0 0 0-.872.511l-.97 1.728a.515.515 0 0 0 .449.768h.022a.497.497 0 0 1 0 .994h-2.83Z"/><defs><radialGradient id="a" cx="0" cy="0" r="1" gradientTransform="rotate(116.565 8.441 5.908) scale(24.5967)" gradientUnits="userSpaceOnUse"><stop stop-color="#F4F4F4"/><stop offset="1" stop-color="#BBB"/></radialGradient></defs></svg>
